src/assets/icons/unfold-less.svg

<svg viewBox="0 0 24 24">
  <path d="M7.415 18.585l1.415 1.415 3.17-3.17 3.17 3.17 1.415-1.415-4.585-4.585-4.585 4.585zM16.585 5.415l-1.415-1.415-3.17 3.17-3.17-3.17-1.415 1.415 4.585 4.585 4.585-4.585z"></path>
</svg>

﻿<?xml version="1.0" encoding="utf-8"?>
<!DOCTYPE svg PUBLIC "-//W3C//DTD SVG 1.1//EN" "http://www.w3.org/Graphics/SVG/1.1/DTD/svg11.dtd">
<svg xmlns="http://www.w3.org/2000/svg" xmlns:xlink="http://www.w3.org/1999/xlink" version="1.1" baseProfile="full" width="24" height="24" viewBox="0 0 24.00 24.00" enable-background="new 0 0 24.00 24.00" xml:space="preserve">
	<path fill="#000000" fill-opacity="1" stroke-linejoin="round" d="M 16.59,5.41L 15.17,4L 12,7.17L 8.83,4L 7.41,5.41L 12,10M 7.41,18.59L 8.83,20L 12,16.83L 15.17,20L 16.58,18.59L 12,14L 7.41,18.59 Z "/>
</svg>
